usr/share/icons/biglinux-icons-material/16/actions/view-financial-account-checking.svg

<svg viewBox="0 0 16 16" xmlns="http://www.w3.org/2000/svg">
  <style type="text/css" id="current-color-scheme">
    .ColorScheme-Text {
      color:#dedede;
    }
    .ColorScheme-NegativeText {
      color:#da4453;
    }
  </style>
<path
    d="m3 2v6h-2v6h12v-6h-9v-5h10v11h1v-12h-12zm2 2v1h4v-1h-4zm0 2v1h3v-1h-3zm-3 3h10v4h-10v-4zm1 2v1h6v-1h-6zm7 0v1h1v-1h-1z"
    style="fill:currentColor;fill-opacity:1;stroke:none"
    class="ColorScheme-Text"
    />
<path
    d="m10 4v1h3v-1z"
    style="fill:currentColor;fill-opacity:1;stroke:none"
    class="ColorScheme-NegativeText"
    />
</svg>

<svg xmlns="http://www.w3.org/2000/svg" viewBox="0 0 16 16"><path d="M3 2v6H1v6h12V8H4V3h10v11h1V2H3zm2 2v1h4V4H5zm0 2v1h3V6H5zM2 9h10v4H2V9zm1 2v1h6v-1H3zm7 0v1h1v-1h-1z" style="fill:currentColor;fill-opacity:1;stroke:none;color:#dedede"/><path d="M10 4v1h3V4z" style="fill:currentColor;fill-opacity:1;stroke:none;color:#da4453"/></svg>
